X: 14
T: Drag Her Round The Road
R: reel
M: 4/4
L: 1/8
K: Emin
BEED E2GE|EDB,E DEGA|BEED E2DE|1 GABG A2GA:|2 GABG A2BA||
G2GF GBdB|cBAB cded|~B2BA GABd|dBGB AGEF|
G2GF GBdB|cBAB cdef|gedB c2ge|dBGB A2GA|]


Tune 1148	Setting 27933

